icons/report-16.svg

<svg width="16" height="16" viewBox="0 0 16 16" fill="none" xmlns="http://www.w3.org/2000/svg">
<path fill-rule="evenodd" clip-rule="evenodd" d="M1.75 1.5C1.61193 1.5 1.5 1.61193 1.5 1.75V11.25C1.5 11.3881 1.61193 11.5 1.75 11.5H3.75C4.16421 11.5 4.5 11.8358 4.5 12.25V14.4393L7.21967 11.7197C7.36032 11.579 7.55109 11.5 7.75 11.5H14.25C14.3881 11.5 14.5 11.3881 14.5 11.25V1.75C14.5 1.61193 14.3881 1.5 14.25 1.5H1.75ZM0 1.75C0 0.783502 0.783501 0 1.75 0H14.25C15.2165 0 16 0.783502 16 1.75V11.25C16 12.2165 15.2165 13 14.25 13H8.06066L5.48744 15.5732C5.21418 15.8465 4.84356 16 4.45711 16C3.65237 16 3 15.3476 3 14.5429V13H1.75C0.783502 13 0 12.2165 0 11.25V1.75ZM9 9C9 9.55229 8.55229 10 8 10C7.44772 10 7 9.55229 7 9C7 8.44771 7.44772 8 8 8C8.55229 8 9 8.44771 9 9ZM8.75 3.75C8.75 3.33579 8.41421 3 8 3C7.58579 3 7.25 3.33579 7.25 3.75V6.25C7.25 6.66421 7.58579 7 8 7C8.41421 7 8.75 6.66421 8.75 6.25V3.75Z" fill="black"/>
</svg>

<svg width="16" height="16" viewBox="0 0 16 16" xmlns="http://www.w3.org/2000/svg"><path fill-rule="evenodd" clip-rule="evenodd" d="M1.75 1.5a.25.25 0 00-.25.25v9.5c0 .138.112.25.25.25h2a.75.75 0 01.75.75v2.19l2.72-2.72a.75.75 0 01.53-.22h6.5a.25.25 0 00.25-.25v-9.5a.25.25 0 00-.25-.25H1.75zM0 1.75C0 .784.784 0 1.75 0h12.5C15.216 0 16 .784 16 1.75v9.5A1.75 1.75 0 0114.25 13H8.06l-2.573 2.573A1.457 1.457 0 013 14.543V13H1.75A1.75 1.75 0 010 11.25v-9.5zM9 9a1 1 0 11-2 0 1 1 0 012 0zm-.25-5.25a.75.75 0 00-1.5 0v2.5a.75.75 0 001.5 0v-2.5z"/></svg>
